src/standard/transportation/car.svg

<svg xmlns="http://www.w3.org/2000/svg" viewBox="0 0 36 36">
  <path d="M29 13.38h-.55L25.59 4.8a.62.62 0 0 0-.59-.42H11a.62.62 0 0 0-.59.42l-2.86 8.58A2.71 2.71 0 0 0 4.38 16v8a.61.61 0 0 0 .62.62h26a.61.61 0 0 0 .62-.62v-8A2.62 2.62 0 0 0 29 13.38ZM11.45 5.62h13.1l2.58 7.76H8.87Zm18.93 17.76H5.62V16A1.38 1.38 0 0 1 7 14.62h22A1.38 1.38 0 0 1 30.38 16Z"/>
  <path d="M9 17.38a.62.62 0 0 0-.62.62v2a.62.62 0 1 0 1.24 0v-2a.62.62 0 0 0-.62-.62Zm18 0a.62.62 0 0 0-.62.62v2a.62.62 0 1 0 1.24 0v-2a.62.62 0 0 0-.62-.62Zm-4-1H13a.62.62 0 0 0-.62.62v4a.62.62 0 0 0 .62.63h10a.62.62 0 0 0 .62-.63v-4a.62.62 0 0 0-.62-.62Zm-.62 4h-8.76v-2.75h8.76ZM6 12.62c.84 0 .59-1.08.62-1.62a.61.61 0 0 0-.62-.62c-.84 0-.59 1.08-.62 1.62a.61.61 0 0 0 .62.62Zm24 0c.84 0 .59-1.08.62-1.62a.61.61 0 0 0-.62-.62c-.84 0-.59 1.08-.62 1.62a.61.61 0 0 0 .62.62Zm1 13.76H5a.63.63 0 0 0 0 1.25h1.38V30A1.61 1.61 0 0 0 8 31.62h2A1.61 1.61 0 0 0 11.62 30v-2.38h12.76V30A1.61 1.61 0 0 0 26 31.62h2A1.61 1.61 0 0 0 29.62 30v-2.38H31a.62.62 0 0 0 0-1.24ZM10.38 30a.38.38 0 0 1-.38.38H8a.38.38 0 0 1-.38-.38v-2.38h2.76Zm18 0a.38.38 0 0 1-.38.38h-2a.38.38 0 0 1-.38-.38v-2.38h2.76Z"/>
</svg>

<svg id="aa12977e-16cb-494b-a873-09d7101934ae" data-name="Icon" xmlns="http://www.w3.org/2000/svg" viewBox="0 0 36 36">
  <g>
    <path d="M29,13.38h-.55L25.59,4.8A.62.62,0,0,0,25,4.38H11a.62.62,0,0,0-.59.42L7.55,13.38A2.71,2.71,0,0,0,4.38,16v8a.61.61,0,0,0,.62.62H31a.61.61,0,0,0,.62-.62V16A2.62,2.62,0,0,0,29,13.38ZM11.45,5.62h13.1l2.58,7.76H8.87ZM30.38,23.38H5.62V16A1.38,1.38,0,0,1,7,14.62H29A1.38,1.38,0,0,1,30.38,16Z"/>
    <path d="M9,17.38a.62.62,0,0,0-.62.62v2a.62.62,0,1,0,1.24,0V18A.62.62,0,0,0,9,17.38Z"/>
    <path d="M27,17.38a.62.62,0,0,0-.62.62v2a.62.62,0,1,0,1.24,0V18A.62.62,0,0,0,27,17.38Z"/>
    <path d="M23,16.38H13a.62.62,0,0,0-.62.62v4a.62.62,0,0,0,.62.63H23a.62.62,0,0,0,.62-.63V17A.62.62,0,0,0,23,16.38Zm-.62,4H13.62V17.63h8.76Z"/>
    <path d="M6,12.62c.84,0,.59-1.08.62-1.62A.61.61,0,0,0,6,10.38c-.84,0-.59,1.08-.62,1.62A.61.61,0,0,0,6,12.62Z"/>
    <path d="M30,12.62c.84,0,.59-1.08.62-1.62a.61.61,0,0,0-.62-.62c-.84,0-.59,1.08-.62,1.62A.61.61,0,0,0,30,12.62Z"/>
    <path d="M31,26.38H5a.63.63,0,0,0,0,1.25H6.38V30A1.61,1.61,0,0,0,8,31.62h2A1.61,1.61,0,0,0,11.62,30V27.62H24.38V30A1.61,1.61,0,0,0,26,31.62h2A1.61,1.61,0,0,0,29.62,30V27.62H31A.62.62,0,0,0,31,26.38ZM10.38,30a.38.38,0,0,1-.38.38H8A.38.38,0,0,1,7.62,30V27.62h2.76Zm18,0a.38.38,0,0,1-.38.38H26a.38.38,0,0,1-.38-.38V27.62h2.76Z"/>
  </g>
</svg>
